apps/teka/src/routes/apps/calcular-vlsm/i.svg

<!--
asi:Redes Locales
title:Calculadora de VLSM para IPs
body:Escribes una IP y varios rangos de dispositivos, y divide todo con VLSM por ti.
-->
<svg
    width="25"
    height="25"
    viewBox="0 0 180 140"
    xmlns="http://www.w3.org/2000/svg"
>
    <path
        d="M90 70C90 47.9086 72.0914 30 50 30C27.9086 30 10 47.9086 10 70C10 92.0914 27.9086 110 50 110V120C22.3858 120 0 97.6142 0 70C0 42.3858 22.3858 20 50 20C77.6142 20 100 42.3858 100 70C100 97.6142 77.6142 120 50 120V110C72.0914 110 90 92.0914 90 70Z"
        fill="currentColor"
    />
    <path
        d="M175 20C175 11.7157 168.284 5 160 5C151.716 5 145 11.7157 145 20C145 28.2843 151.716 35 160 35V40C148.954 40 140 31.0457 140 20C140 8.9543 148.954 0 160 0C171.046 0 180 8.9543 180 20C180 31.0457 171.046 40 160 40V35C168.284 35 175 28.2843 175 20Z"
        fill="currentColor"
    />
    <path
        d="M175 120C175 111.716 168.284 105 160 105C151.716 105 145 111.716 145 120C145 128.284 151.716 135 160 135V140C148.954 140 140 131.046 140 120C140 108.954 148.954 100 160 100C171.046 100 180 108.954 180 120C180 131.046 171.046 140 160 140V135C168.284 135 175 128.284 175 120Z"
        fill="currentColor"
    />
    <path
        d="M100.32 42.895L101.004 44.7744L93.4283 47.5316L92.7442 45.6522L100.32 42.895ZM108.843 39.7928L109.527 41.6722L101.951 44.4297L101.267 42.5503L108.843 39.7928ZM117.365 36.6909L118.049 38.5703L110.473 41.3278L109.789 39.4485L117.365 36.6909ZM125.888 33.589L126.572 35.4684L118.996 38.2256L118.312 36.3462L125.888 33.589ZM134.41 30.4871L135.094 32.3665L127.519 35.1237L126.835 33.2443L134.41 30.4871ZM142.932 27.3852L143.616 29.2646L136.041 32.0218L135.357 30.1424L142.932 27.3852Z"
        fill="currentColor"
    />
    <path
        d="M99.6876 95.3462L99.0036 97.2256L91.4282 94.4684L92.1123 92.589L99.6876 95.3462ZM108.211 98.4484L107.527 100.328L99.9506 97.5703L100.635 95.6909L108.211 98.4484ZM116.733 101.55L116.049 103.43L108.473 100.672L109.157 98.7928L116.733 101.55ZM125.256 104.652L124.572 106.532L116.996 103.774L117.68 101.895L125.256 104.652ZM133.778 107.754L133.094 109.633L125.519 106.876L126.203 104.997L133.778 107.754ZM142.301 110.856L141.616 112.735L134.041 109.978L134.725 108.099L142.301 110.856Z"
        fill="currentColor"
    />
</svg>

<!--
asi:Redes Locales
title:Calculadora de VLSM para IPs
body:Escribes una IP y varios rangos de dispositivos, y divide todo con VLSM por ti.
-->
<svg xmlns="http://www.w3.org/2000/svg" width="25" height="25" viewBox="0 0 180 140"><path fill="currentColor" d="M90 70c0-22.091-17.909-40-40-40S10 47.909 10 70s17.909 40 40 40v10C22.386 120 0 97.614 0 70s22.386-50 50-50 50 22.386 50 50-22.386 50-50 50v-10c22.091 0 40-17.909 40-40m85-50c0-8.284-6.716-15-15-15s-15 6.716-15 15 6.716 15 15 15v5c-11.046 0-20-8.954-20-20s8.954-20 20-20 20 8.954 20 20-8.954 20-20 20v-5c8.284 0 15-6.716 15-15m0 100c0-8.284-6.716-15-15-15s-15 6.716-15 15 6.716 15 15 15v5c-11.046 0-20-8.954-20-20s8.954-20 20-20 20 8.954 20 20-8.954 20-20 20v-5c8.284 0 15-6.716 15-15"/><path fill="currentColor" d="m100.32 42.895.684 1.88-7.576 2.757-.684-1.88zm8.523-3.102.684 1.88-7.576 2.757-.684-1.88zm8.522-3.102.684 1.88-7.576 2.757-.684-1.88zm8.523-3.102.684 1.88-7.576 2.757-.684-1.88zm8.522-3.102.684 1.88-7.575 2.757-.684-1.88zm8.522-3.102.684 1.88-7.575 2.757-.684-1.88zM99.688 95.346l-.684 1.88-7.576-2.758.684-1.879zm8.523 3.102-.684 1.88-7.576-2.758.684-1.88zm8.522 3.102-.684 1.88-7.576-2.758.684-1.88zm8.523 3.102-.684 1.88-7.576-2.758.684-1.879zm8.522 3.102-.684 1.879-7.575-2.757.684-1.879zm8.523 3.102-.685 1.879-7.575-2.757.684-1.879z"/></svg>
